**kern	**kern	**kern
*staff3	*staff2	*staff1
*tb32	*tb32	*tb32
*clefF4	*clefF4	*clefG2
*k[f#c#g#]	*k[f#c#g#]	*k[f#c#g#]
*M2/4	*M2/4	*M2/4
*A:	*A:	*A:
8r	8r	8e'J
=176	=176	=176
8A'L	2r	(16g#LL
.	.	16aJJ)
8e'J	.	8b'
8c#'L	.	(16b#LL
.	.	16cc#JJ)
8A'J	.	8dd'
=177	=177	=177
8G#'L	2r	(16dd#LL
.	.	16eeJJ)
8B'J	.	8ff#'
8G#'L	.	(16dd#LL
.	.	16eeJJ)
8E'J	.	8dd'
=178	=178	=178
8A'L	2r	(16b#LL
.	.	16cc#JJ)
8E'J	.	8b'
8C#'L	.	(16b#LL
.	.	16cc#JJ)
8AA'J	.	8dd'
=179	=179	=179
8GG#'L	2r	(16dd#LL
.	.	16eeJJ)
8BB'J	.	8ff#'
8GG#'L	.	(16dd#LL
.	.	16eeJJ)
8EE'J	.	8dd'
=180	=180	=180
8AA'L	2r	(16b#LL
.	.	16cc#JJ)
8C#'J	.	8ee'
8D'L	.	(16cc#LL
.	.	16bJJ)
8E'J	.	8ee'
=181	=181	=181
8AA'	2r	(16bLL
.	.	16aJJ)
8r	.	8aa'
(16G#LL	.	(16gg#LL
16AJ)	.	16aaJJ)
8D'J	.	8ff#'
=182	=182	=182
(16G#LL	2r	(16gg#LL
16AJ)	.	16aaJJ)
8C#'J	.	8ee'
8EL	.	(16cc#LL
.	.	16bJJ)
8EEJ	.	8ee'
=183	=183	=183
8AA	2r	(16bLL
.	.	16aJJ)
8r	.	8ee'
(16G#LL	.	(16gg#LL
16AJ)	.	16aaJJ)
8D'J	.	8ff#'
=184	=184	=184
(16G#LL	2r	(16gg#LL
16AJ)	.	16aaJJ)
8C#'J	.	8ee'
8EL	.	(16cc#LL
.	.	16bJJ)
8EEJ	.	8ee'
=185	=185	=185
4AA	4.r	4a
8r	.	8r
*||	*||	*||
*-	*-	*-
